X: 28506
T: Munster Bank, The
R: polka
M: 2/4
K: Gmajor
|:G>E DE|GA Bd|ed B^c/B/|AG E>F|
G>E DE|GA Bd|ed B^c/B/|AG G2:|
|:ed Bd|ed Bd|~g>e dB|(3A/B/A/G E>F|
G>E DE|GA Bd|ed Bc/B/|AG G2:|

